X: 106
T:Missa Di dadi / Kyrie
N: Derived from Jos0903a-Missa_Di_dadi-Kyrie.krn
C: Josquin des Prez
%%abc-version 2.0
%%abcx-abcm2ps-target-version 5.9.1 (29 Sep 2008)
%%abc-creator hum2abc beta
%%abcx-conversion-date 2019/02/12 16:15:43
%%abc-edited-by Jesse Rodin
%%abc-edited-by Jesse Rodin; Victoria Chang 2012/01/27
%%abcx-initial-encoding-date 2012/01/27/
%%humdrum-veritas 1006158056
%%humdrum-veritas-data 2058130457
%%linebreak <none>
%%barnumbers 0
L: 1/4
M: 3/1
Q: 1/2=120
%%staves [1 2 3 4]
V: 1 clef=treble
V: 2 clef=treble-8
V: 3 clef=treble-8
V: 4 clef=bass
K: F
[V:1] G8G4 | 
[V:2] G6A2B4 | 
[V:3] z12 :
[V:4] z12 | 
[V:1] E4F6GA | 
[V:2] c4A4d4- | 
[V:3] z12 | 
[V:4] z12 | 
[V:1] B6AGB4 | 
[V:2] d4G8 | 
[V:3] z12 :
[V:4] z12 | 
[V:1] A2G4F2E4 | 
[V:2] c12 | 
[V:3] z12 | 
[V:4] z12 | 
[V:1] D8z2G2- | 
[V:2] B2G2B3cd2_e2- | 
[V:3] G8B4 :
[V:4] G,12 | 
[V:1] G2A3G^FEF4 | 
[V:2] edcBA2B2A4 | 
[V:3] c4d8 | 
[V:4] _E,2F,4B,,C,D,4 | 
[V:1] G3FD2_E3B,C2 | 
[V:2] G8z4 | 
[V:3] z4B4G4 :
[V:4] G,,8_E,4 | 
[V:1] D2F4EDF3G | 
[V:2] F12 | 
[V:3] A4B8 | 
[V:4] D,12 | 
[V:1] E4F8 | 
[V:2] G4D8- | 
[V:3] c4d8 :
[V:4] C,4B,,6A,,2 | 
[V:1] G4A8 | 
[V:2] D4F8 | 
[V:3] B4A8 | 
[V:4] G,,4F,,8 | 
[V:1] z2B4G2A3D | 
[V:2] D3CD2E2C2F2- | 
[V:3] G8F4- :
[V:4] G,,3A,,B,,2C,2A,,2D,2- | 
[V:1] D4z2F4G2 | 
[V:2] F2D2E2F2D2G2- | 
[V:3] F4A4B4 | 
[V:4] D,2B,,2C,2D,4B,,2 | 
[V:1] A4B6AG | 
[V:2] G2F2G3AB2c2 | 
[V:3] c4B4G4- :
[V:4] A,,4G,,4_E,4- | 
[V:1] B3AF2G4^F2 | 
[V:2] GABcd8- | 
[V:3] G4A8 | 
[V:4] E,4D,8 | 
[V:1] G12 ||  
[V:2] d12 ||  
[V:3] G12 ||  
[V:4] G,,12 ||  
[V:1]  [K:F] [K:clef=treble][M:2/1]z8 | 
[V:2]  [K:F] [K:clef=treble-8][M:2/1]G8 | 
[V:3]  [K:F] [K:clef=treble-8][M:2/1]z8 | 
[V:4]  [K:F] [K:clef=bass][M:2/1]G,6F,E, | 
[V:1] z8 | 
[V:2] A4B4- | 
[V:3] z8 | 
[V:4] F,4G,4- | 
[V:1] D8 | 
[V:2] B2A2B4 | 
[V:3] z8 | 
[V:4] G,2F,E,D,4 | 
[V:1] E4F4- | 
[V:2] c4d2d2- | 
[V:3] z8 | 
[V:4] C,4B,,4 | 
[V:1] F2E2F4 | 
[V:2] d2cBA4 | 
[V:3] z8 | 
[V:4] D,6F,2 | 
[V:1] G4A2A2- | 
[V:2] G4F4- | 
[V:3] z8 | 
[V:4] E,4D,4- | 
[V:1] A2GFE4 | 
[V:2] F4G4 | 
[V:3] z8 | 
[V:4] D,4C,4 | 
[V:1] z4D4- | 
[V:2] B6AG | 
[V:3] z8 | 
[V:4] B,,4G,,4 | 
[V:1] D2E2F4- | 
[V:2] A8 | 
[V:3] z8 | 
[V:4] D,8- | 
[V:1] F2GAB4- | 
[V:2] z4d4- | 
[V:3] z8 | 
[V:4] D,4G,4- | 
[V:1] B2AGB4 | 
[V:2] d8 | 
[V:3] z8 | 
[V:4] G,2F,E,G,4 | 
[V:1] A6GF | 
[V:2] c2A4B2 | 
[V:3] z8 | 
[V:4] F,6E,D, | 
[V:1] A4G4- | 
[V:2] c6B2 | 
[V:3] z8 | 
[V:4] C,2D,2_E,4- | 
[V:1] G2FEG4 | 
[V:2] G2A2B4- | 
[V:3] z8 | 
[V:4] E,2D,2B,,2C,2 | 
[V:1] F6ED | 
[V:2] B2A2F2G2 | 
[V:3] z8 | 
[V:4] D,6C,B,, | 
[V:1] F4E2A2- | 
[V:2] A8 | 
[V:3] z8 | 
[V:4] A,,2D,2C,2F,2- | 
[V:1] A2F2G2A2 | 
[V:2] D4E2F2 | 
[V:3] z8 | 
[V:4] F,E,D,2C,B,,A,,2 | 
[V:1] D2G4F2- | 
[V:2] G2B2A4 | 
[V:3] z8 | 
[V:4] G,,4D,4- | 
[V:1] F2B4A2- | 
[V:2] d4c2A2 | 
[V:3] z8 | 
[V:4] D,2B,,2F,4 | 
[V:1] A2G2F2B2- | 
[V:2] B3cA2G2 | 
[V:3] z8 | 
[V:4] G,2E,2F,2G,2- | 
[V:1] BAc3BAG | 
[V:2] d2A2c3B | 
[V:3] z8 | 
[V:4] G,2A,4F,2 | 
[V:1] B3AGFA2- | 
[V:2] G2B3AF2 | 
[V:3] z8 | 
[V:4] G,2_E,2F,2D,2 | 
[V:1] AGG4^F2 | 
[V:2] G4A4 | 
[V:3] z8 | 
[V:4] _E,4D,4 | 
[V:1] G8 ||  
[V:2] G8 ||  
[V:3] z8 ||  
[V:4] G,,8 ||  
[V:1]  [K:F] [K:clef=treble][M:3/1]D6E2F4 | 
[V:2]  [K:F] [K:clef=treble-8][M:3/1]z12 | 
[V:3]  [K:F] [K:clef=treble-8][M:3/0]z12 :
[V:4]  [K:F] [K:clef=bass][M:3/1]B,12- | 
[V:1] G4A3Bc4 | 
[V:2] z12 | 
[V:3] z12 | 
[V:4] B,4A,8 | 
[V:1] B6A4G2 | 
[V:2] d12- | 
[V:3] z12 :
[V:4] G,4F,4G,4 | 
[V:1] G6^F2F2E2 | 
[V:2] d4D8 | 
[V:3] z12 | 
[V:4] B,4A,8 | 
[V:1] G4z2D4CB, | 
[V:2] z2d3cB4AG | 
[V:3] G8B4 :
[V:4] G,12 | 
[V:1] A,3G,A,2B,2A,4 | 
[V:2] F3EF2G4^F2 | 
[V:3] c4d8 | 
[V:4] z4z4D,4 | 
[V:1] G,2B,3CD4G,2 | 
[V:2] G6FED2E2- | 
[V:3] z4B4G4 :
[V:4] G,,8B,,2C,2 | 
[V:1] C2A,2D8 | 
[V:2] E2F2D2G4F2 | 
[V:3] A4B8 | 
[V:4] A,,2D,4B,,4D,2 | 
[V:1] z2C2F2G2A4 | 
[V:2] G2A3FB2A4 | 
[V:3] c4d8 :
[V:4] E,2F,2D,2G,4^F,2 | 
[V:1] B2G2A2F3EDC | 
[V:2] d12- | 
[V:3] B4A8 | 
[V:4] G,4D,8 | 
[V:1] B,2D4CB,A,3B, | 
[V:2] d4z2D3EFG | 
[V:3] G8F4- :
[V:4] G,,8D,3C, | 
[V:1] C2D2E2F2G4 | 
[V:2] A2D2z2D4E2 | 
[V:3] F4A4B4 | 
[V:4] A,,2D,2C,2D,2G,,4 | 
[V:1] A4B6A2 | 
[V:2] F4D2G3AB2- | 
[V:3] c4B4G4- :
[V:4] F,,4G,,8 | 
[V:1] G6^F2F4 | 
[V:2] Bcd4D2z2D2- | 
[V:3] G4A8 | 
[V:4] G,,4D,8 | 
[V:1] G12- | 
[V:2] D2_E3CD2_E4 | 
[V:3] G12- :
[V:4] G,,2C,4B,,2C,4 | 
[V:1] G12 |]  
[V:2] D2D2-D8 |]  
[V:3] G12 |]  
[V:4] G,,12 |]  



